X:276
T: HABT IHR ES NOCH NIE ERFAHREN
N: B0753
O: Europa, Mitteleuropa, Deutschland
R: religioes
M: 4/4
L: 1/4
K: Eb
 | G,A,B,E | DCB,G, | ECB,G,
F,A,G,C | B,2=A,2 | B,3z
DEFD | EB,A,F,
G,A,B,E | E2D2 | E3z

